src/sources/forus-webshop/resources/_webshop-common/assets/img/icon-auth/me-app-fill-pin-code.svg

<svg width="102" height="102" viewBox="0 0 102 102" fill="none" xmlns="http://www.w3.org/2000/svg">
<rect x="1" y="1" width="100" height="100" rx="50" fill="white"/>
<rect x="1" y="1" width="100" height="100" rx="50" stroke="#E5E5E5"/>
<g filter="url(#filter0_d_10_1631)">
<rect x="20" y="31" width="62" height="23" rx="4" fill="white"/>
<rect x="20" y="31" width="62" height="23" rx="4" stroke="#929EBA" stroke-width="2"/>
<path d="M52.6826 42.25H49.3176C48.8621 42.25 48.4927 42.5859 48.4927 43C48.4927 43.4141 48.8621 43.75 49.3176 43.75H52.6826C53.1382 43.75 53.5076 43.4141 53.5076 43C53.5076 42.5859 53.1382 42.25 52.6826 42.25Z" fill="#929EBA"/>
<path d="M31.4971 41.5619L30.8084 41.8042V41.0205C30.8084 40.457 30.3862 40 29.8657 40C29.3451 40 28.923 40.457 28.923 41.0205V41.8042L28.2343 41.5619C27.7393 41.388 27.2072 41.681 27.0464 42.2172C26.8855 42.7532 27.1565 43.329 27.6517 43.5032L28.3403 43.7454L27.9147 44.3795C27.6086 44.8355 27.702 45.4737 28.1232 45.805C28.2906 45.9366 28.4844 46 28.6766 46C28.9681 46 29.2556 45.8541 29.44 45.5792L29.8657 44.9451L30.2913 45.5792C30.4757 45.8541 30.7632 46 31.0547 46C31.2469 46 31.4409 45.9366 31.6081 45.805C32.0293 45.4737 32.1227 44.8355 31.8166 44.3795L31.3911 43.7454L32.0797 43.5032C32.5749 43.329 32.8458 42.7532 32.685 42.2172C32.524 41.6811 31.9923 41.388 31.4971 41.5619Z" fill="#282B39"/>
<path d="M38.6612 41.5619L37.9726 41.8042V41.0205C37.9726 40.457 37.5504 40 37.0299 40C36.5093 40 36.0871 40.457 36.0871 41.0205V41.8042L35.3985 41.5619C34.9036 41.388 34.3715 41.681 34.2105 42.2172C34.0497 42.7532 34.3207 43.329 34.8159 43.5032L35.5044 43.7454L35.0789 44.3795C34.7728 44.8355 34.8662 45.4737 35.2874 45.805C35.4548 45.9366 35.6486 46 35.8408 46C36.1323 46 36.4198 45.8541 36.6042 45.5792L37.0299 44.9451L37.4555 45.5792C37.6399 45.8541 37.9274 46 38.2189 46C38.411 46 38.605 45.9366 38.7723 45.805C39.1935 45.4737 39.2869 44.8355 38.9808 44.3795L38.5553 43.7454L39.2438 43.5032C39.739 43.329 40.01 42.7532 39.8492 42.2172C39.6881 41.6811 39.1563 41.388 38.6612 41.5619Z" fill="#282B39"/>
<path d="M47.0133 42.2172C46.8524 41.6811 46.3208 41.388 45.8254 41.5619L45.1368 41.8042V41.0205C45.1368 40.457 44.7147 40 44.1941 40C43.6735 40 43.2513 40.457 43.2513 41.0205V41.8042L42.5627 41.5619C42.0677 41.388 41.5356 41.681 41.3747 42.2172C41.2139 42.7532 41.4848 43.329 41.9801 43.5032L42.6686 43.7454L42.2431 44.3795C41.937 44.8355 42.0304 45.4737 42.4516 45.805C42.619 45.9366 42.8128 46 43.005 46C43.2965 46 43.584 45.8541 43.7684 45.5792L44.1941 44.9451L44.6197 45.5792C44.8041 45.8541 45.0917 46 45.3832 46C45.5753 46 45.7693 45.9366 45.9365 45.805C46.3578 45.4737 46.4512 44.8355 46.1451 44.3795L45.7195 43.7454L46.4081 43.5032C46.9032 43.329 47.1742 42.7532 47.0133 42.2172Z" fill="#282B39"/>
<path d="M59.4374 41.5619L58.7487 41.8042V41.0205C58.7487 40.457 58.3265 40 57.806 40C57.2854 40 56.8632 40.457 56.8632 41.0205V41.8042L56.1746 41.5619C55.6796 41.388 55.1475 41.681 54.9867 42.2172C54.8258 42.7532 55.0968 43.329 55.592 43.5032L56.2806 43.7454L55.855 44.3795C55.5489 44.8355 55.6423 45.4737 56.0635 45.805C56.2309 45.9366 56.4247 46 56.6169 46C56.9084 46 57.1959 45.8541 57.3803 45.5792L57.806 44.9451L58.2316 45.5792C58.416 45.8541 58.7035 46 58.995 46C59.1871 46 59.3812 45.9366 59.5484 45.805C59.9696 45.4737 60.063 44.8355 59.7569 44.3795L59.3314 43.7454L60.02 43.5032C60.5152 43.329 60.7861 42.7532 60.6253 42.2172C60.4643 41.6811 59.9326 41.388 59.4374 41.5619Z" fill="#282B39"/>
<path d="M66.6015 41.5619L65.9129 41.8042V41.0205C65.9129 40.457 65.4907 40 64.9701 40C64.4496 40 64.0274 40.457 64.0274 41.0205V41.8042L63.3388 41.5619C62.8439 41.388 62.3118 41.681 62.1508 42.2172C61.99 42.7532 62.261 43.329 62.7562 43.5032L63.4447 43.7454L63.0192 44.3795C62.7131 44.8355 62.8065 45.4737 63.2277 45.805C63.3951 45.9366 63.5889 46 63.7811 46C64.0726 46 64.3601 45.8541 64.5445 45.5792L64.9701 44.9451L65.3958 45.5792C65.5802 45.8541 65.8677 46 66.1592 46C66.3513 46 66.5453 45.9366 66.7126 45.805C67.1338 45.4737 67.2272 44.8355 66.9211 44.3795L66.4956 43.7454L67.1841 43.5032C67.6793 43.329 67.9503 42.7532 67.7895 42.2172C67.6284 41.6811 67.0966 41.388 66.6015 41.5619Z" fill="#282B39"/>
<path d="M74.9536 42.2172C74.7927 41.6811 74.2611 41.388 73.7657 41.5619L73.0771 41.8042V41.0205C73.0771 40.457 72.655 40 72.1344 40C71.6138 40 71.1916 40.457 71.1916 41.0205V41.8042L70.503 41.5619C70.008 41.388 69.4759 41.681 69.315 42.2172C69.1542 42.7532 69.4251 43.329 69.9204 43.5032L70.6089 43.7454L70.1834 44.3795C69.8773 44.8355 69.9707 45.4737 70.3919 45.805C70.5592 45.9366 70.7531 46 70.9453 46C71.2368 46 71.5243 45.8541 71.7087 45.5792L72.1344 44.9451L72.56 45.5792C72.7444 45.8541 73.032 46 73.3234 46C73.5156 46 73.7096 45.9366 73.8768 45.805C74.298 45.4737 74.3915 44.8355 74.0854 44.3795L73.6598 43.7454L74.3484 43.5032C74.8435 43.329 75.1145 42.7532 74.9536 42.2172Z" fill="#282B39"/>
</g>
<path d="M61.4884 52.3221L62.6122 49.8095C63.074 48.842 64.2281 48.4242 65.2034 48.8715C66.1782 49.3185 66.6132 50.4644 66.1802 51.4445L65.0447 54.0148C64.3897 55.4976 64.3345 57.1761 64.8909 58.6986L64.9195 58.7769L62.118 55.9785C61.154 55.0158 60.9018 53.5511 61.4884 52.3221Z" fill="#F7D3CA"/>
<path d="M65.2107 58.3174L54.444 47.5638C53.6912 46.8121 52.4708 46.8121 51.7181 47.5638C50.9654 48.3156 50.9654 49.5345 51.7181 50.2862L57.6784 56.2391C56.9221 55.5474 55.7472 55.5669 55.0149 56.2983C54.2622 57.0501 54.2622 58.269 55.0149 59.0207L55.0142 59.0214C54.2615 58.2697 53.041 58.2697 52.2883 59.0214C51.5492 59.7596 51.5364 60.9479 52.2488 61.7024C51.4934 60.9908 50.3037 61.0036 49.5645 61.7418C48.8118 62.4936 48.8118 63.7125 49.5645 64.4642L54.319 69.213C56.7113 71.6023 60.5922 71.5946 62.9751 69.1961L65.2276 66.9288C67.5973 64.5435 67.5898 60.6935 65.2107 58.3174Z" fill="#F9E0DA"/>
<defs>
<filter id="filter0_d_10_1631" x="11" y="26" width="80" height="41" filterUnits="userSpaceOnUse" color-interpolation-filters="sRGB">
<feFlood flood-opacity="0" result="BackgroundImageFix"/>
<feColorMatrix in="SourceAlpha" type="matrix" values="0 0 0 0 0 0 0 0 0 0 0 0 0 0 0 0 0 0 127 0" result="hardAlpha"/>
<feOffset dy="4"/>
<feGaussianBlur stdDeviation="4"/>
<feColorMatrix type="matrix" values="0 0 0 0 0 0 0 0 0 0 0 0 0 0 0 0 0 0 0.06 0"/>
<feBlend mode="normal" in2="BackgroundImageFix" result="effect1_dropShadow_10_1631"/>
<feBlend mode="normal" in="SourceGraphic" in2="effect1_dropShadow_10_1631" result="shape"/>
</filter>
</defs>
</svg>

<svg width="102" height="102" fill="none" xmlns="http://www.w3.org/2000/svg"><rect x="1" y="1" width="100" height="100" rx="50" fill="#fff"/><rect x="1" y="1" width="100" height="100" rx="50" stroke="#E5E5E5"/><g filter="url(#a)"><rect x="20" y="31" width="62" height="23" rx="4" fill="#fff"/><rect x="20" y="31" width="62" height="23" rx="4" stroke="#929EBA" stroke-width="2"/><path d="M52.683 42.25h-3.365c-.456 0-.825.336-.825.75s.37.75.825.75h3.365c.455 0 .825-.336.825-.75s-.37-.75-.825-.75Z" fill="#929EBA"/><path d="m31.497 41.562-.689.242v-.784c0-.563-.422-1.02-.942-1.02s-.943.457-.943 1.02v.784l-.689-.242c-.495-.174-1.027.119-1.188.655-.16.536.11 1.112.606 1.286l.688.242-.425.635c-.306.456-.213 1.094.208 1.425a.891.891 0 0 0 .554.195.92.92 0 0 0 .763-.42l.426-.635.425.634a.92.92 0 0 0 .764.421.89.89 0 0 0 .553-.195c.421-.331.515-.97.209-1.425l-.426-.635.689-.242c.495-.174.766-.75.605-1.286-.161-.536-.693-.829-1.188-.655ZM38.661 41.562l-.688.242v-.784c0-.563-.423-1.02-.943-1.02s-.943.457-.943 1.02v.784l-.689-.242c-.494-.174-1.027.119-1.188.655-.16.536.11 1.112.606 1.286l.688.242-.425.635c-.306.456-.213 1.094.208 1.425a.891.891 0 0 0 .554.195.92.92 0 0 0 .763-.42l.426-.635.425.634a.92.92 0 0 0 .764.421.891.891 0 0 0 .553-.195c.422-.331.515-.97.209-1.425l-.426-.635.689-.242c.495-.174.766-.75.605-1.286-.16-.536-.693-.829-1.188-.655ZM47.013 42.217c-.16-.536-.692-.829-1.188-.655l-.688.242v-.784c0-.563-.422-1.02-.943-1.02-.52 0-.943.457-.943 1.02v.784l-.688-.242c-.495-.174-1.027.119-1.188.655-.161.536.11 1.112.605 1.286l.689.242-.426.635c-.306.456-.213 1.094.209 1.425a.891.891 0 0 0 .553.195.92.92 0 0 0 .763-.42l.426-.635.426.634a.92.92 0 0 0 .763.421.89.89 0 0 0 .553-.195c.422-.331.515-.97.21-1.425l-.427-.635.69-.242c.494-.174.765-.75.604-1.286ZM59.437 41.562l-.688.242v-.784c0-.563-.422-1.02-.943-1.02-.52 0-.943.457-.943 1.02v.784l-.688-.242c-.495-.174-1.027.119-1.188.655-.161.536.11 1.112.605 1.286l.689.242-.426.635c-.306.456-.213 1.094.209 1.425a.891.891 0 0 0 .553.195.92.92 0 0 0 .763-.42l.426-.635.426.634a.92.92 0 0 0 .763.421.891.891 0 0 0 .553-.195c.422-.331.515-.97.209-1.425l-.426-.635.689-.242c.495-.174.766-.75.605-1.286-.16-.536-.692-.829-1.188-.655ZM66.602 41.562l-.69.242v-.784c0-.563-.421-1.02-.942-1.02-.52 0-.943.457-.943 1.02v.784l-.688-.242c-.495-.174-1.027.119-1.188.655-.161.536.11 1.112.605 1.286l.689.242-.426.635c-.306.456-.212 1.094.209 1.425a.891.891 0 0 0 .553.195.92.92 0 0 0 .764-.42l.425-.635.426.634a.92.92 0 0 0 .763.421.891.891 0 0 0 .554-.195c.42-.331.514-.97.208-1.425l-.425-.635.688-.242c.495-.174.766-.75.606-1.286-.162-.536-.693-.829-1.189-.655ZM74.954 42.217c-.161-.536-.693-.829-1.188-.655l-.689.242v-.784c0-.563-.422-1.02-.943-1.02-.52 0-.942.457-.942 1.02v.784l-.689-.242c-.495-.174-1.027.119-1.188.655-.16.536.11 1.112.605 1.286l.689.242-.426.635c-.306.456-.212 1.094.209 1.425a.891.891 0 0 0 .553.195.92.92 0 0 0 .764-.42l.425-.635.426.634a.92.92 0 0 0 .763.421.89.89 0 0 0 .554-.195c.421-.331.514-.97.208-1.425l-.425-.635.688-.242c.496-.174.767-.75.606-1.286Z" fill="#282B39"/></g><path d="m61.488 52.322 1.124-2.513a1.964 1.964 0 0 1 2.591-.938 1.96 1.96 0 0 1 .977 2.573l-1.135 2.57a6.267 6.267 0 0 0-.154 4.685l.028.078-2.801-2.799a3.212 3.212 0 0 1-.63-3.656Z" fill="#F7D3CA"/><path d="M65.21 58.317 54.445 47.564a1.93 1.93 0 0 0-2.726 0 1.923 1.923 0 0 0 0 2.722l5.96 5.953a1.93 1.93 0 0 0-2.663.06 1.923 1.923 0 0 0 0 2.722 1.93 1.93 0 0 0-2.727 0 1.923 1.923 0 0 0-.04 2.681 1.929 1.929 0 0 0-2.683.04 1.923 1.923 0 0 0 0 2.722l4.754 4.749a6.114 6.114 0 0 0 8.656-.017l2.253-2.267a6.096 6.096 0 0 0-.017-8.612Z" fill="#F9E0DA"/><defs><filter id="a" x="11" y="26" width="80" height="41" filterUnits="userSpaceOnUse" color-interpolation-filters="sRGB"><feFlood flood-opacity="0" result="BackgroundImageFix"/><feColorMatrix in="SourceAlpha" values="0 0 0 0 0 0 0 0 0 0 0 0 0 0 0 0 0 0 127 0" result="hardAlpha"/><feOffset dy="4"/><feGaussianBlur stdDeviation="4"/><feColorMatrix values="0 0 0 0 0 0 0 0 0 0 0 0 0 0 0 0 0 0 0.06 0"/><feBlend in2="BackgroundImageFix" result="effect1_dropShadow_10_1631"/><feBlend in="SourceGraphic" in2="effect1_dropShadow_10_1631" result="shape"/></filter></defs></svg>
